X: 54
T:Fasten the Legging
M:6/8
L:1/8
R:Jig
K:G
c|:BBB BAB|GBd gdB|ABA AGA|Bee dBA|BBB BAB|GBd gfg|efg eag | [1 fdd d2 c
] :| [2 fdd def] |
|gag fgf| ege dBA|GFG AGA|Bee dBA| |gag fgf| ege dBA|gfg eag | [1 fdd de
f]:| [2 fdd d2 c] |
